X: 1
T: Chasing Rabbits
C: Marcia Landa
R: jig
Z: 2018 John Chambers <jc:trillian.mit.edu>
S: PDF in message from Marcia
M: 6/8
L: 1/8
K: G
"A"[|] EGA |\
"G"BcB BcB | "D"A2d "Em"B3 |\
"Am"ABA ABA | "Em"G2A B3 |\
"G"BcB BcB | "D"A2d "Em"B3 |\
"Am"ABA ABA | "B"B6 z3 |
"G"BcB BcB | "D"A2d "Em"B3 |\
"Am"ABA ABA | "Em"G2F E3 |\
"Am"ABA cBA | "Em"G2A B3 |\
"B"FGF FGF | "Em"E3 z2E "B"|:\
"Am"[e3-c3-] [e2c2]E |
"Em"[e3-B3-] [e2B2]E |\
"Am"[ec][fc][ec] [ec][fc][ec] | "Em"[e3-B3-] [e3B3] |\
"Am"ABA cBA | "Em"G2A B3 |\
[1 "B"FGF FGF | B3 z3E :|\
[2 "B"FGF BcB | "Em"e3 |]

%%sep 1 1 500

